!!!OTL: 1e. Die schoene Agnese.
!!!ARE: Europa, Mitteleuropa, Deutschland, Magdeburg
!!!SCT: E0001I
!!!TXL:@@DE
!!!YEM: Copyright 1995, estate of Helmut Schaffrath.
**kern	**text
*ICvox	*
*M4/4	*
*met(c)	*
*k[f#c#g#]	*
*A:	*
!LO:TX:a:t=Ernſt.	!
!LO:TX:a:t=Aus dem Magdeburgiſchen.	!
{8e	Es
8e	ver-
=1	=1
8a	-lieb-
8a	-te
8e	ſich
8e	ein
4a	wilder
4b	.
=2	=2
4cc#	Waſſermann
8cc#L	.
8bJ	.
4a	.
4r}	.
=3	=3
{4.cc#	[von
8dd	der
4ee	Burg
4ee	bis
=4	=4
8eeL	über
8ddJ	.
4dd	die
4cc#}	Seel,
{8a/L	in
8cc#J	des
=5	=5
8ee	Kö-
8ee	-nigs
4ee	von
4dd	Eng-
8dd	-land
8b	ſein
=6	=6
4a	Töch-
8cc#/L	-ter-
8aJ	.
4e}	-lein
{4e	[die
=7	=7
8f#	ſchö-
8f#	-ne
4f#	Ag-
(4e	-ne-
4g#)	.
=8	=8
2a	-ſe.]
4r}	.
==	==
!!!AGN: Sage, Maerchen -, Zauber - Lied, Ballade ?
!!!ONB: ESAC (Essen Associative Code) Database: ERK1
!!!AMT: simple quadruple
!!!AIN: vox
!!!EED: Helmut Schaffrath
!!!EEV: 1.0
!!!GTL: Nachtklaenge der Goettersage (Zaubermaeren)
!!!URL-scan: https://rosdok.uni-rostock.de/mcrviewer/recordIdentifier/rosdok_ppn745146120/iview2/phys_0070.iview2?x=-4.404412318551749&y=1189.2033468231675&scale=0.6456904138606624&rotation=0&layout=singlePageLayout&logicalDiv=log_0009
!!!ENC: Anna Maria Matuszewska
!!!EEV: 2024/21/11
*-	*-
